symbols/web/hd/materialsymbolssharp/hd_wght100fill1_20px.svg

<svg xmlns="http://www.w3.org/2000/svg" height="20" width="20"><path d="M5.688 12.146h.624v-1.625h2.25v1.625h.626V7.854h-.626v2.042h-2.25V7.854h-.624Zm5.124 0h2.292q.5 0 .854-.365.354-.364.354-.864V9.083q0-.521-.354-.875t-.854-.354h-2.292Zm.626-.625V8.479h1.916q.125 0 .229.104.105.105.105.229v2.376q0 .124-.105.229-.104.104-.229.104ZM2.75 15.583V4.417h14.5v11.166Z"/></svg>

<svg xmlns="http://www.w3.org/2000/svg" height="20" width="20"><path d="M5.688 12.146H6.312V10.521H8.562V12.146H9.188V7.854H8.562V9.896H6.312V7.854H5.688ZM10.812 12.146H13.104Q13.604 12.146 13.958 11.781Q14.312 11.417 14.312 10.917V9.083Q14.312 8.562 13.958 8.208Q13.604 7.854 13.104 7.854H10.812ZM11.438 11.521V8.479H13.354Q13.479 8.479 13.583 8.583Q13.688 8.688 13.688 8.812V11.188Q13.688 11.312 13.583 11.417Q13.479 11.521 13.354 11.521ZM2.75 15.583V4.417H17.25V15.583Z"/></svg>
